assets/images/results/14.svg

<svg width="705" height="30" viewBox="0 0 705 30" fill="none" xmlns="http://www.w3.org/2000/svg">
<g opacity="0.1">
<rect width="47" height="30" rx="8" fill="white"/>
</g>
<g opacity="0.1">
<rect x="55" width="47" height="30" rx="8" fill="white"/>
</g>
<rect x="110" width="47" height="30" rx="8" fill="#7D9D3B"/>
<path d="M136.938 16.682C136.938 17.326 136.775 17.9093 136.448 18.432C136.131 18.9547 135.697 19.37 135.146 19.678C134.605 19.986 133.989 20.14 133.298 20.14C132.551 20.14 131.903 19.958 131.352 19.594C130.811 19.23 130.391 18.7073 130.092 18.026C129.793 17.3447 129.644 16.528 129.644 15.576C129.644 14.372 129.798 13.3547 130.106 12.524C130.423 11.684 130.871 11.054 131.45 10.634C132.029 10.2047 132.71 9.99 133.494 9.99C134.119 9.99 134.693 10.1253 135.216 10.396C135.748 10.6667 136.196 11.054 136.56 11.558L135.482 12.734C135.258 12.3887 134.969 12.118 134.614 11.922C134.259 11.7167 133.877 11.614 133.466 11.614C133.046 11.614 132.682 11.726 132.374 11.95C132.066 12.174 131.828 12.5007 131.66 12.93C131.492 13.35 131.399 13.8587 131.38 14.456C131.511 14.232 131.679 14.0407 131.884 13.882C132.089 13.714 132.327 13.588 132.598 13.504C132.869 13.4107 133.158 13.364 133.466 13.364C134.129 13.364 134.721 13.5133 135.244 13.812C135.767 14.1013 136.177 14.498 136.476 15.002C136.784 15.4967 136.938 16.0567 136.938 16.682ZM133.298 18.558C133.634 18.558 133.942 18.474 134.222 18.306C134.502 18.1287 134.726 17.9 134.894 17.62C135.062 17.3307 135.146 17.018 135.146 16.682C135.146 16.346 135.062 16.0427 134.894 15.772C134.726 15.492 134.502 15.2727 134.222 15.114C133.951 14.946 133.648 14.862 133.312 14.862C132.976 14.862 132.668 14.946 132.388 15.114C132.108 15.2727 131.884 15.492 131.716 15.772C131.557 16.0427 131.478 16.346 131.478 16.682C131.478 17.018 131.562 17.3307 131.73 17.62C131.898 17.9 132.122 18.1287 132.402 18.306C132.682 18.474 132.981 18.558 133.298 18.558Z" fill="white"/>
<path d="M165 8C165 3.58172 168.582 0 173 0H203.846C208.264 0 211.846 3.58172 211.846 8V22C211.846 26.4183 208.264 30 203.846 30H173C168.582 30 165 26.4183 165 22V8Z" fill="white" fill-opacity="0.1"/>
<path d="M165 8C165 3.58172 168.582 0 173 0H203.846C208.264 0 211.846 3.58172 211.846 8V22C211.846 26.4183 208.264 30 203.846 30H173C168.582 30 165 26.4183 165 22V8Z" fill="url(#paint0_linear_13_389)"/>
<path d="M219.846 8C219.846 3.58172 223.428 0 227.846 0H258.692C263.111 0 266.692 3.58172 266.692 8V22C266.692 26.4183 263.111 30 258.692 30H227.846C223.428 30 219.846 26.4183 219.846 22V8Z" fill="white" fill-opacity="0.1"/>
<path d="M219.846 8C219.846 3.58172 223.428 0 227.846 0H258.692C263.111 0 266.692 3.58172 266.692 8V22C266.692 26.4183 263.111 30 258.692 30H227.846C223.428 30 219.846 26.4183 219.846 22V8Z" fill="url(#paint1_linear_13_389)"/>
<path d="M274.692 8C274.692 3.58172 278.274 0 282.692 0H313.538C317.957 0 321.538 3.58172 321.538 8V22C321.538 26.4183 317.957 30 313.538 30H282.692C278.274 30 274.692 26.4183 274.692 22V8Z" fill="white" fill-opacity="0.1"/>
<path d="M274.692 8C274.692 3.58172 278.274 0 282.692 0H313.538C317.957 0 321.538 3.58172 321.538 8V22C321.538 26.4183 317.957 30 313.538 30H282.692C278.274 30 274.692 26.4183 274.692 22V8Z" fill="url(#paint2_linear_13_389)"/>
<path d="M329.538 8C329.538 3.58172 333.12 0 337.538 0H368.385C372.803 0 376.385 3.58172 376.385 8V22C376.385 26.4183 372.803 30 368.385 30H337.538C333.12 30 329.538 26.4183 329.538 22V8Z" fill="white" fill-opacity="0.1"/>
<path d="M329.538 8C329.538 3.58172 333.12 0 337.538 0H368.385C372.803 0 376.385 3.58172 376.385 8V22C376.385 26.4183 372.803 30 368.385 30H337.538C333.12 30 329.538 26.4183 329.538 22V8Z" fill="url(#paint3_linear_13_389)"/>
<path d="M384.385 8C384.385 3.58172 387.966 0 392.385 0H423.231C427.649 0 431.231 3.58172 431.231 8V22C431.231 26.4183 427.649 30 423.231 30H392.385C387.966 30 384.385 26.4183 384.385 22V8Z" fill="white" fill-opacity="0.1"/>
<path d="M384.385 8C384.385 3.58172 387.966 0 392.385 0H423.231C427.649 0 431.231 3.58172 431.231 8V22C431.231 26.4183 427.649 30 423.231 30H392.385C387.966 30 384.385 26.4183 384.385 22V8Z" fill="url(#paint4_linear_13_389)"/>
<path d="M439.231 8C439.231 3.58172 442.813 0 447.231 0H478.077C482.495 0 486.077 3.58172 486.077 8V22C486.077 26.4183 482.495 30 478.077 30H447.231C442.812 30 439.231 26.4183 439.231 22V8Z" fill="white" fill-opacity="0.1"/>
<path d="M439.231 8C439.231 3.58172 442.813 0 447.231 0H478.077C482.495 0 486.077 3.58172 486.077 8V22C486.077 26.4183 482.495 30 478.077 30H447.231C442.812 30 439.231 26.4183 439.231 22V8Z" fill="url(#paint5_linear_13_389)"/>
<path d="M494.077 8C494.077 3.58172 497.659 0 502.077 0H532.923C537.341 0 540.923 3.58172 540.923 8V22C540.923 26.4183 537.341 30 532.923 30H502.077C497.659 30 494.077 26.4183 494.077 22V8Z" fill="white" fill-opacity="0.1"/>
<path d="M494.077 8C494.077 3.58172 497.659 0 502.077 0H532.923C537.341 0 540.923 3.58172 540.923 8V22C540.923 26.4183 537.341 30 532.923 30H502.077C497.659 30 494.077 26.4183 494.077 22V8Z" fill="url(#paint6_linear_13_389)"/>
<path d="M548.923 8C548.923 3.58172 552.505 0 556.923 0H587.769C592.188 0 595.769 3.58172 595.769 8V22C595.769 26.4183 592.188 30 587.769 30H556.923C552.505 30 548.923 26.4183 548.923 22V8Z" fill="white" fill-opacity="0.1"/>
<path d="M548.923 8C548.923 3.58172 552.505 0 556.923 0H587.769C592.188 0 595.769 3.58172 595.769 8V22C595.769 26.4183 592.188 30 587.769 30H556.923C552.505 30 548.923 26.4183 548.923 22V8Z" fill="url(#paint7_linear_13_389)"/>
<path d="M603.769 8C603.769 3.58172 607.351 0 611.769 0H642.615C647.034 0 650.615 3.58172 650.615 8V22C650.615 26.4183 647.034 30 642.615 30H611.769C607.351 30 603.769 26.4183 603.769 22V8Z" fill="white" fill-opacity="0.1"/>
<path d="M603.769 8C603.769 3.58172 607.351 0 611.769 0H642.615C647.034 0 650.615 3.58172 650.615 8V22C650.615 26.4183 647.034 30 642.615 30H611.769C607.351 30 603.769 26.4183 603.769 22V8Z" fill="url(#paint8_linear_13_389)"/>
<rect x="658.615" width="46" height="30" rx="8" fill="#38BCE2"/>
<path d="M677.423 20.098C676.891 20.098 676.406 20.0327 675.967 19.902C675.538 19.762 675.16 19.566 674.833 19.314C674.516 19.0527 674.264 18.7447 674.077 18.39L675.085 17.116C675.179 17.3213 675.328 17.522 675.533 17.718C675.739 17.914 675.995 18.0727 676.303 18.194C676.611 18.3153 676.961 18.376 677.353 18.376C677.736 18.376 678.067 18.32 678.347 18.208C678.627 18.096 678.842 17.942 678.991 17.746C679.15 17.5407 679.229 17.2933 679.229 17.004C679.229 16.696 679.131 16.4347 678.935 16.22C678.749 16.0053 678.469 15.842 678.095 15.73C677.722 15.618 677.265 15.562 676.723 15.562H676.261V14.162H676.751C677.423 14.162 677.96 14.0453 678.361 13.812C678.772 13.5787 678.977 13.2473 678.977 12.818C678.977 12.5567 678.907 12.3327 678.767 12.146C678.627 11.95 678.441 11.8053 678.207 11.712C677.974 11.6093 677.717 11.558 677.437 11.558C676.971 11.558 676.555 11.67 676.191 11.894C675.837 12.1087 675.566 12.3887 675.379 12.734L674.161 11.376C674.367 11.0773 674.647 10.8253 675.001 10.62C675.356 10.4053 675.753 10.2373 676.191 10.116C676.639 9.99467 677.101 9.934 677.577 9.934C678.24 9.934 678.828 10.0507 679.341 10.284C679.855 10.508 680.256 10.816 680.545 11.208C680.835 11.6 680.979 12.048 680.979 12.552C680.979 12.9253 680.9 13.266 680.741 13.574C680.592 13.882 680.377 14.1387 680.097 14.344C679.817 14.5493 679.486 14.6987 679.103 14.792C679.514 14.8573 679.873 15.0113 680.181 15.254C680.499 15.4873 680.741 15.786 680.909 16.15C681.087 16.5047 681.175 16.892 681.175 17.312C681.175 17.9 681.007 18.3993 680.671 18.81C680.345 19.2207 679.897 19.538 679.327 19.762C678.767 19.986 678.133 20.098 677.423 20.098ZM689.743 16.682C689.743 17.326 689.579 17.9093 689.253 18.432C688.935 18.9547 688.501 19.37 687.951 19.678C687.409 19.986 686.793 20.14 686.103 20.14C685.356 20.14 684.707 19.958 684.157 19.594C683.615 19.23 683.195 18.7073 682.897 18.026C682.598 17.3447 682.449 16.528 682.449 15.576C682.449 14.372 682.603 13.3547 682.911 12.524C683.228 11.684 683.676 11.054 684.255 10.634C684.833 10.2047 685.515 9.99 686.299 9.99C686.924 9.99 687.498 10.1253 688.021 10.396C688.553 10.6667 689.001 11.054 689.365 11.558L688.287 12.734C688.063 12.3887 687.773 12.118 687.419 11.922C687.064 11.7167 686.681 11.614 686.271 11.614C685.851 11.614 685.487 11.726 685.179 11.95C684.871 12.174 684.633 12.5007 684.465 12.93C684.297 13.35 684.203 13.8587 684.185 14.456C684.315 14.232 684.483 14.0407 684.689 13.882C684.894 13.714 685.132 13.588 685.403 13.504C685.673 13.4107 685.963 13.364 686.271 13.364C686.933 13.364 687.526 13.5133 688.049 13.812C688.571 14.1013 688.982 14.498 689.281 15.002C689.589 15.4967 689.743 16.0567 689.743 16.682ZM686.103 18.558C686.439 18.558 686.747 18.474 687.027 18.306C687.307 18.1287 687.531 17.9 687.699 17.62C687.867 17.3307 687.951 17.018 687.951 16.682C687.951 16.346 687.867 16.0427 687.699 15.772C687.531 15.492 687.307 15.2727 687.027 15.114C686.756 14.946 686.453 14.862 686.117 14.862C685.781 14.862 685.473 14.946 685.193 15.114C684.913 15.2727 684.689 15.492 684.521 15.772C684.362 16.0427 684.283 16.346 684.283 16.682C684.283 17.018 684.367 17.3307 684.535 17.62C684.703 17.9 684.927 18.1287 685.207 18.306C685.487 18.474 685.785 18.558 686.103 18.558Z" fill="white"/>
<defs>
<linearGradient id="paint0_linear_13_389" x1="165" y1="15" x2="650.615" y2="15" gradientUnits="userSpaceOnUse">
<stop stop-color="#7D9D3B"/>
<stop offset="1" stop-color="#38BCE2"/>
</linearGradient>
<linearGradient id="paint1_linear_13_389" x1="165" y1="15" x2="650.615" y2="15" gradientUnits="userSpaceOnUse">
<stop stop-color="#7D9D3B"/>
<stop offset="1" stop-color="#38BCE2"/>
</linearGradient>
<linearGradient id="paint2_linear_13_389" x1="165" y1="15" x2="650.615" y2="15" gradientUnits="userSpaceOnUse">
<stop stop-color="#7D9D3B"/>
<stop offset="1" stop-color="#38BCE2"/>
</linearGradient>
<linearGradient id="paint3_linear_13_389" x1="165" y1="15" x2="650.615" y2="15" gradientUnits="userSpaceOnUse">
<stop stop-color="#7D9D3B"/>
<stop offset="1" stop-color="#38BCE2"/>
</linearGradient>
<linearGradient id="paint4_linear_13_389" x1="165" y1="15" x2="650.615" y2="15" gradientUnits="userSpaceOnUse">
<stop stop-color="#7D9D3B"/>
<stop offset="1" stop-color="#38BCE2"/>
</linearGradient>
<linearGradient id="paint5_linear_13_389" x1="165" y1="15" x2="650.615" y2="15" gradientUnits="userSpaceOnUse">
<stop stop-color="#7D9D3B"/>
<stop offset="1" stop-color="#38BCE2"/>
</linearGradient>
<linearGradient id="paint6_linear_13_389" x1="165" y1="15" x2="650.615" y2="15" gradientUnits="userSpaceOnUse">
<stop stop-color="#7D9D3B"/>
<stop offset="1" stop-color="#38BCE2"/>
</linearGradient>
<linearGradient id="paint7_linear_13_389" x1="165" y1="15" x2="650.615" y2="15" gradientUnits="userSpaceOnUse">
<stop stop-color="#7D9D3B"/>
<stop offset="1" stop-color="#38BCE2"/>
</linearGradient>
<linearGradient id="paint8_linear_13_389" x1="165" y1="15" x2="650.615" y2="15" gradientUnits="userSpaceOnUse">
<stop stop-color="#7D9D3B"/>
<stop offset="1" stop-color="#38BCE2"/>
</linearGradient>
</defs>
</svg>

<svg xmlns="http://www.w3.org/2000/svg" width="705" height="30" fill="none" viewBox="0 0 705 30"><rect width="47" height="30" fill="#fff" opacity="0.1" rx="8"/><rect width="47" height="30" x="55" fill="#fff" opacity="0.1" rx="8"/><rect width="47" height="30" x="110" fill="#7D9D3B" rx="8"/><path fill="#fff" d="M136.938 16.682q0 .966-.49 1.75a3.5 3.5 0 0 1-1.302 1.246q-.811.462-1.848.462-1.12 0-1.946-.546-.811-.546-1.26-1.568t-.448-2.45q0-1.806.462-3.052.476-1.26 1.344-1.89.868-.645 2.044-.644a3.73 3.73 0 0 1 3.066 1.568l-1.078 1.176a2.4 2.4 0 0 0-.868-.812 2.25 2.25 0 0 0-1.148-.308q-.63 0-1.092.336-.462.335-.714.98-.252.63-.28 1.526a2 2 0 0 1 .504-.574q.308-.252.714-.378.406-.14.868-.14.994 0 1.778.448.784.435 1.232 1.19.462.742.462 1.68m-3.64 1.876q.504 0 .924-.252.42-.266.672-.686.252-.434.252-.938 0-.505-.252-.91-.252-.42-.672-.658a1.7 1.7 0 0 0-.91-.252q-.504 0-.924.252-.42.238-.672.658-.238.406-.238.91t.252.938q.252.42.672.686.42.252.896.252"/><path fill="#fff" fill-opacity="0.1" d="M165 8a8 8 0 0 1 8-8h30.846a8 8 0 0 1 8 8v14a8 8 0 0 1-8 8H173a8 8 0 0 1-8-8z"/><path fill="url(#a)" d="M165 8a8 8 0 0 1 8-8h30.846a8 8 0 0 1 8 8v14a8 8 0 0 1-8 8H173a8 8 0 0 1-8-8z"/><path fill="#fff" fill-opacity="0.1" d="M219.846 8a8 8 0 0 1 8-8h30.846a8 8 0 0 1 8 8v14a8 8 0 0 1-8 8h-30.846a8 8 0 0 1-8-8z"/><path fill="url(#b)" d="M219.846 8a8 8 0 0 1 8-8h30.846a8 8 0 0 1 8 8v14a8 8 0 0 1-8 8h-30.846a8 8 0 0 1-8-8z"/><path fill="#fff" fill-opacity="0.1" d="M274.692 8a8 8 0 0 1 8-8h30.846a8 8 0 0 1 8 8v14a8 8 0 0 1-8 8h-30.846a8 8 0 0 1-8-8z"/><path fill="url(#c)" d="M274.692 8a8 8 0 0 1 8-8h30.846a8 8 0 0 1 8 8v14a8 8 0 0 1-8 8h-30.846a8 8 0 0 1-8-8z"/><path fill="#fff" fill-opacity="0.1" d="M329.538 8a8 8 0 0 1 8-8h30.847a8 8 0 0 1 8 8v14a8 8 0 0 1-8 8h-30.847a8 8 0 0 1-8-8z"/><path fill="url(#d)" d="M329.538 8a8 8 0 0 1 8-8h30.847a8 8 0 0 1 8 8v14a8 8 0 0 1-8 8h-30.847a8 8 0 0 1-8-8z"/><path fill="#fff" fill-opacity="0.1" d="M384.385 8a8 8 0 0 1 8-8h30.846a8 8 0 0 1 8 8v14a8 8 0 0 1-8 8h-30.846a8 8 0 0 1-8-8z"/><path fill="url(#e)" d="M384.385 8a8 8 0 0 1 8-8h30.846a8 8 0 0 1 8 8v14a8 8 0 0 1-8 8h-30.846a8 8 0 0 1-8-8z"/><path fill="#fff" fill-opacity="0.1" d="M439.231 8a8 8 0 0 1 8-8h30.846a8 8 0 0 1 8 8v14a8 8 0 0 1-8 8h-30.846a8 8 0 0 1-8-8z"/><path fill="url(#f)" d="M439.231 8a8 8 0 0 1 8-8h30.846a8 8 0 0 1 8 8v14a8 8 0 0 1-8 8h-30.846a8 8 0 0 1-8-8z"/><path fill="#fff" fill-opacity="0.1" d="M494.077 8a8 8 0 0 1 8-8h30.846a8 8 0 0 1 8 8v14a8 8 0 0 1-8 8h-30.846a8 8 0 0 1-8-8z"/><path fill="url(#g)" d="M494.077 8a8 8 0 0 1 8-8h30.846a8 8 0 0 1 8 8v14a8 8 0 0 1-8 8h-30.846a8 8 0 0 1-8-8z"/><path fill="#fff" fill-opacity="0.1" d="M548.923 8a8 8 0 0 1 8-8h30.846a8 8 0 0 1 8 8v14a8 8 0 0 1-8 8h-30.846a8 8 0 0 1-8-8z"/><path fill="url(#h)" d="M548.923 8a8 8 0 0 1 8-8h30.846a8 8 0 0 1 8 8v14a8 8 0 0 1-8 8h-30.846a8 8 0 0 1-8-8z"/><path fill="#fff" fill-opacity="0.1" d="M603.769 8a8 8 0 0 1 8-8h30.846a8 8 0 0 1 8 8v14a8 8 0 0 1-8 8h-30.846a8 8 0 0 1-8-8z"/><path fill="url(#i)" d="M603.769 8a8 8 0 0 1 8-8h30.846a8 8 0 0 1 8 8v14a8 8 0 0 1-8 8h-30.846a8 8 0 0 1-8-8z"/><rect width="46" height="30" x="658.615" fill="#38BCE2" rx="8"/><path fill="#fff" d="M677.423 20.098a5 5 0 0 1-1.456-.196 3.7 3.7 0 0 1-1.134-.588 3 3 0 0 1-.756-.924l1.008-1.274q.14.308.448.602.309.294.77.476.462.182 1.05.182.574 0 .994-.168a1.47 1.47 0 0 0 .644-.462q.238-.308.238-.742 0-.462-.294-.784-.279-.322-.84-.49t-1.372-.168h-.462v-1.4h.49q1.008 0 1.61-.35.616-.35.616-.994 0-.391-.21-.672a1.23 1.23 0 0 0-.56-.434 1.9 1.9 0 0 0-.77-.154 2.33 2.33 0 0 0-1.246.336 2.2 2.2 0 0 0-.812.84l-1.218-1.358q.309-.448.84-.756a4.7 4.7 0 0 1 1.19-.504q.672-.182 1.386-.182.995 0 1.764.35.77.336 1.204.924t.434 1.344q0 .56-.238 1.022a2.05 2.05 0 0 1-.644.77q-.42.308-.994.448.616.098 1.078.462.476.35.728.896.266.532.266 1.162 0 .882-.504 1.498-.489.616-1.344.952-.84.336-1.904.336m12.32-3.416a3.24 3.24 0 0 1-.49 1.75 3.5 3.5 0 0 1-1.302 1.246q-.813.462-1.848.462-1.12 0-1.946-.546-.813-.546-1.26-1.568t-.448-2.45q0-1.806.462-3.052.475-1.26 1.344-1.89.867-.645 2.044-.644a3.73 3.73 0 0 1 3.066 1.568l-1.078 1.176a2.4 2.4 0 0 0-.868-.812 2.26 2.26 0 0 0-1.148-.308q-.63 0-1.092.336-.462.335-.714.98-.252.63-.28 1.526a2 2 0 0 1 .504-.574q.308-.252.714-.378.406-.14.868-.14.993 0 1.778.448.783.435 1.232 1.19.462.742.462 1.68m-3.64 1.876q.504 0 .924-.252.42-.266.672-.686.252-.434.252-.938 0-.505-.252-.91-.252-.42-.672-.658a1.7 1.7 0 0 0-.91-.252q-.504 0-.924.252-.42.238-.672.658-.238.406-.238.91t.252.938q.252.42.672.686.42.252.896.252"/><defs><linearGradient id="a" x1="165" x2="650.615" y1="15" y2="15" gradientUnits="userSpaceOnUse"><stop stop-color="#7D9D3B"/><stop offset="1" stop-color="#38BCE2"/></linearGradient><linearGradient id="b" x1="165" x2="650.615" y1="15" y2="15" gradientUnits="userSpaceOnUse"><stop stop-color="#7D9D3B"/><stop offset="1" stop-color="#38BCE2"/></linearGradient><linearGradient id="c" x1="165" x2="650.615" y1="15" y2="15" gradientUnits="userSpaceOnUse"><stop stop-color="#7D9D3B"/><stop offset="1" stop-color="#38BCE2"/></linearGradient><linearGradient id="d" x1="165" x2="650.615" y1="15" y2="15" gradientUnits="userSpaceOnUse"><stop stop-color="#7D9D3B"/><stop offset="1" stop-color="#38BCE2"/></linearGradient><linearGradient id="e" x1="165" x2="650.615" y1="15" y2="15" gradientUnits="userSpaceOnUse"><stop stop-color="#7D9D3B"/><stop offset="1" stop-color="#38BCE2"/></linearGradient><linearGradient id="f" x1="165" x2="650.615" y1="15" y2="15" gradientUnits="userSpaceOnUse"><stop stop-color="#7D9D3B"/><stop offset="1" stop-color="#38BCE2"/></linearGradient><linearGradient id="g" x1="165" x2="650.615" y1="15" y2="15" gradientUnits="userSpaceOnUse"><stop stop-color="#7D9D3B"/><stop offset="1" stop-color="#38BCE2"/></linearGradient><linearGradient id="h" x1="165" x2="650.615" y1="15" y2="15" gradientUnits="userSpaceOnUse"><stop stop-color="#7D9D3B"/><stop offset="1" stop-color="#38BCE2"/></linearGradient><linearGradient id="i" x1="165" x2="650.615" y1="15" y2="15" gradientUnits="userSpaceOnUse"><stop stop-color="#7D9D3B"/><stop offset="1" stop-color="#38BCE2"/></linearGradient></defs></svg>
